local/share/icons/dracula-icons-main/24/places/folder-publicshare.svg

<?xml version="1.0" encoding="UTF-8"?>
<svg xmlns="http://www.w3.org/2000/svg" xmlns:xlink="http://www.w3.org/1999/xlink" width="24" height="24" viewBox="0 0 24 24">
<path fill-rule="nonzero" fill="rgb(100%, 100%, 100%)" fill-opacity="1" d="M 10 6 C 8.34375 6 7 7.34375 7 9 C 7 10.65625 8.34375 12 10 12 C 11.65625 12 13 10.65625 13 9 C 13 7.34375 11.65625 6 10 6 Z M 14.996094 7.945312 L 15 7.949219 C 14.613281 7.949219 14.246094 8.039062 13.914062 8.1875 C 13.96875 8.449219 14 8.71875 14 8.996094 C 14 10.101562 13.546875 11.101562 12.816406 11.828125 C 13.277344 12.527344 14.074219 12.996094 14.996094 12.996094 C 16.429688 12.996094 17.589844 11.867188 17.589844 10.472656 C 17.589844 9.078125 16.429688 7.945312 14.996094 7.945312 Z M 10 13.996094 C 4 14 4 18 4 18 L 4 19 L 16 19 L 16 18 C 16 18 16 13.988281 10 14 Z M 15 14 C 14.804688 14 14.628906 14.011719 14.449219 14.019531 C 15.144531 14.421875 15.675781 14.898438 16.050781 15.398438 C 16.992188 16.660156 17 18 17 18 L 20 18 L 20 17 C 20 17 20 14 15 14 Z M 15 14 "/>
</svg>

<svg width="24" height="24" version="1.1" viewBox="0 0 24 24" xmlns="http://www.w3.org/2000/svg">
 <defs>
  <style id="current-color-scheme" type="text/css">.ColorScheme-Text { color:#FFFFFF; } .ColorScheme-Highlight { color:#5294e2; }</style>
 </defs>
 <path class="ColorScheme-Text" fill="currentColor" d="m10 6c-1.6569 0-3 1.3432-3 3s1.3431 3 3 3 3-1.3432 3-3-1.3431-3-3-3zm4.9961 1.9453 0.0039 0.00391c-0.38828 0-0.75329 0.089301-1.084 0.23828 0.0546 0.26205 0.08398 0.53309 0.08398 0.81055 0 1.1021-0.45421 2.1042-1.1836 2.8301 0.46 0.7 1.2597 1.1699 2.1797 1.1699 1.4327 0 2.5938-1.1303 2.5938-2.5254s-1.161-2.5273-2.5938-2.5273zm-4.9961 6.0508c-6.0002 0.0034-6 4.0039-6 4.0039v1h12v-1s0-4.01-6-4zm5 2e-3v0.0019c-0.1961 0-0.37171 0.01258-0.55273 0.02148 0.69756 0.39966 1.2291 0.87707 1.6035 1.377 0.94 1.26 0.94922 2.5996 0.94922 2.5996h3v-1s0-3-5-3z"/>
</svg>
